src/topics/icons/grove.svg

<svg height="267" preserveAspectRatio="xMidYMid" viewBox="0 0 256 267" width="256" xmlns="http://www.w3.org/2000/svg" xmlns:xlink="http://www.w3.org/1999/xlink"><filter id="a" height="200%" width="200%" x="-50%" y="-50%"><feOffset dx="0" dy="1" in="SourceAlpha" result="shadowOffsetOuter1"/><feGaussianBlur in="shadowOffsetOuter1" result="shadowBlurOuter1" stdDeviation="2"/><feColorMatrix in="shadowBlurOuter1" result="shadowMatrixOuter1" type="matrix" values="0 0 0 0 0   0 0 0 0 0   0 0 0 0 0  0 0 0 0.243359375 0"/><feMerge><feMergeNode in="shadowMatrixOuter1"/><feMergeNode in="SourceGraphic"/></feMerge></filter><g transform="translate(4 3)"><path d="m33.0666667 178.008889 35.2711111-67.786667 28.1066666 47.395556-35.8222222 57.315555z" fill="#92c83e"/><path d="m55.6622222 209.422222 67.2355558-131.1644442 36.373333 68.3377782-51.804444 89.831111z" fill="#4b843d"/><path d="m98.0977778 233.12 93.1377782-190.1333333s30.311111 34.72 37.475555 50.7022222c6.613333 14.8800001 4.96 47.9466671-5.511111 73.8488891s-31.964444 45.191111-44.088889 50.151111c-50.151111 22.044444-81.0133332 15.431111-81.0133332 15.431111z" fill="#92c83e"/><path d="m248 124c0-68.3377778-55.662222-124-124-124-68.3377778 0-124 55.6622222-124 124 0 62.826667 47.3955556 115.182222 108.568889 122.897778v13.226666l25.902222-12.675555c63.377778-4.96 113.528889-58.417778 113.528889-123.448889zm-124 101.955556c-52.9066667 0-101.9555556-49.048889-101.9555556-101.955556 0-52.9066667 49.0488889-101.9555556 101.9555556-101.9555556 52.906667 0 101.955556 49.0488889 101.955556 101.9555556 0 52.906667-49.048889 101.955556-101.955556 101.955556z" fill="#fff" filter="url(#a)"/></g></svg>

<?xml version="1.0" encoding="UTF-8" standalone="no"?>
<svg width="256px" height="267px" viewBox="0 0 256 267" version="1.1" xmlns="http://www.w3.org/2000/svg" xmlns:xlink="http://www.w3.org/1999/xlink" preserveAspectRatio="xMidYMid">
    <defs>
        <filter x="-50%" y="-50%" width="200%" height="200%" filterUnits="objectBoundingBox" id="filter-1">
            <feOffset dx="0" dy="1" in="SourceAlpha" result="shadowOffsetOuter1"></feOffset>
            <feGaussianBlur stdDeviation="2" in="shadowOffsetOuter1" result="shadowBlurOuter1"></feGaussianBlur>
            <feColorMatrix values="0 0 0 0 0   0 0 0 0 0   0 0 0 0 0  0 0 0 0.243359375 0" in="shadowBlurOuter1" type="matrix" result="shadowMatrixOuter1"></feColorMatrix>
            <feMerge>
                <feMergeNode in="shadowMatrixOuter1"></feMergeNode>
                <feMergeNode in="SourceGraphic"></feMergeNode>
            </feMerge>
        </filter>
    </defs>
	<g transform="translate(4.000000, 3.000000)">
		<path d="M33.0666667,178.008889 L68.3377778,110.222222 L96.4444444,157.617778 L60.6222222,214.933333 L33.0666667,178.008889 Z" fill="#92C83E"></path>
		<path d="M55.6622222,209.422222 L122.897778,78.2577778 L159.271111,146.595556 L107.466667,236.426667 L55.6622222,209.422222 Z" fill="#4B843D"></path>
		<path d="M98.0977778,233.12 L191.235556,42.9866667 C191.235556,42.9866667 221.546667,77.7066667 228.711111,93.6888889 C235.324444,108.568889 233.671111,141.635556 223.2,167.537778 C212.728889,193.44 191.235556,212.728889 179.111111,217.688889 C128.96,239.733333 98.0977778,233.12 98.0977778,233.12 L98.0977778,233.12 Z" fill="#92C83E"></path>
		<path d="M248,124 C248,55.6622222 192.337778,0 124,0 C55.6622222,0 0,55.6622222 0,124 C0,186.826667 47.3955556,239.182222 108.568889,246.897778 L108.568889,260.124444 L134.471111,247.448889 C197.848889,242.488889 248,189.031111 248,124 L248,124 Z M124,225.955556 C71.0933333,225.955556 22.0444444,176.906667 22.0444444,124 C22.0444444,71.0933333 71.0933333,22.0444444 124,22.0444444 C176.906667,22.0444444 225.955556,71.0933333 225.955556,124 C225.955556,176.906667 176.906667,225.955556 124,225.955556 L124,225.955556 Z" fill="#FFFFFF" filter="url(#filter-1)"></path>
	</g>
</svg>
